X: 620
T:Ships are sailing
M:4/4
L:1/8
R:Reel
Z:Andrew Pickering
N:Posted to the woodenflute mailing list January 2003
K:Edor
Beed BcdB|AD (3FED AD (3FED|E3 F GFGA|Beef gfed|
Beed BcdB|AD (3FED AD (3FED|E^DEF GFGA|1 Beed e2ed:|2 Beed e^def||
|:gfga bgeg|fefg afdf|g3 a bgeg|fedf e^def|
g3 a bgeg|f3 g afdf|g2 bg f2 af|1 edef gfef:|2 e^def gfed||
<end>
<start>
